X:1
T:Piano Sonata in D, No. 18
T:III 
T:W. A. Mozart KV 576 
C:W. A. Mozart
%%score { ( 1 4 ) | ( 2 3 ) }
L:1/8
Q:1/4=90
M:2/4
K:D
V:1 treble nm="Piano" snm="Pno."
V:4 treble 
V:2 treble 
V:3 treble 
V:1
"^Allegretto" (d3/2e/4d/4 c).d | (^de) .e z | (e3/2f/4e/4 =d).e | (^ef) .f z | (a/>b/g/>a/) .f.d | %5
 (g/>a/f/>g/) .e.c | .d.d.c.!fermata!c | (!fermata!PTB/>A/B/>c/) .A z |!f! (d3/2e/4d/4 c).d | %9
 (^de) .e z | (e3/2f/4e/4 =d).e | (^ef) .f z | (3D/F/A/ (3d/!courtesy!=e/f/ (3g/f/g/ (3b/g/d/ | %13
 (3A/c/e/ (3a/b/c'/ (3d'/c'/b/ (3a/g/f/ | (3^d/e/g/ (3b/g/e/ (3a/f/=d/ (3g/e/c/ | d2 z d' | %16
 (c'/a/) g2 (e/c/) | d2 z d' | (c'/a/) g2 (e/c/) | (3d/A/f/ (3e/c/g/ (3f/d/a/ (3g/e/c/ | %20
 (3d/A/f/ (3e/c/g/ (3f/d/a/ (3g/e/c/ | (3d/f/d/ (3A/d/A/ (3F/A/F/ (3D/F/D/ | A, z [Adf] z | %23
 (3A,/C/E/ (3A/c/e/ (3f/a/d'/ (3a/f/d/ | .a.A z2 | z4 | z!p! (d'/f/) (a^g) | z4 | %28
 z (e'/^g/) (b^a) | (b3/2^a/4b/4 c').d' | (=gf) z .d' | (=fe) z (e/c'/) | (b a2 ^d) | %33
 (e3/2f/4e/4 ^d).e | (^ef) .f z | (^g3/2a/4g/4 f).g | (^ga) .a z | (b3/2!<(!c'/4b/4 a).b | %38
 (c'3/2d'/4c'/4 b).c'!<)! |!f! (3d'/b/^g/ (3e/d/B/ (3^G/B/d/ (3e/g/b/ | %40
 (3d'/b/^g/ (3e/d/B/ (3^G/B/d/ (3e/g/b/ | (3d'/b/d'/ (3c'/a/c'/ (3b/^g/b/ (3a/f/a/ | %42
 (3^g/e/g/ (3f/d/f/ (3e/c/e/ (3d/B/d/ | c (3e'/c'/a/ (3^g/b/e/ (3e'/d'/b/ | %44
 (3a/c'/e/ (3e'/c'/a/ (3^g/b/e/ (3e'/d'/b/ | (3a/c'/e/ e'2 d'- | d' c'2 b- | b a2 ^g | %48
 (3a/c'/e/ (3f/a/d/ (3c/e/A/ (3B/d/^G/ | A z!mf! ([ec'][^eb] | [fa][c^g] [df][A!courtesy!=e]) | %51
 (e/d/c) e2- | (e/dcBA/) | ([Ac][^GB]) (3(c'/d'/c'/ (3b/^d'/e'/) | %54
 (3(a/b/a/ (3^g/^b/c'/) (3(f/=g/f/ (3e/^g/a/) | (e/d/c) e2- | (e/f/d/B/) (Ac/B/) | %57
 A z!f! (3a/e/c/ (3A/E/C/ | B, z (3b/^g/d/ (3B/^G/D/ | C z (3c'/a/e/ (3c/A/E/ | %60
 D z (3d'/a/f/ (3d/A/F/ | E z (3z/ A/c/ (3e/g/c'/ | (3e'/g/e'/ (3d'/f/d'/ (3c'/e/c'/!>(! (3b/g/b/ | %63
 (3a/f/a/ (3g/e/!fermata!g/ (3!fermata!f/!fermata!d/!fermata!f/ (3!fermata!e/!fermata!c/!fermata!e/!>)! | %64
 (d3/2e/4d/4 c).d | (^de) .e z | (e3/2f/4e/4 =d).e | (^ef) .f z | (a/>b/g/>a/) .f.d | %69
 (g/>a/f/>g/) .e.c | .d.d.c.!fermata!c | (!fermata!PTB/>A/B/>c/) .A z |!f! (d3/2e/4d/4 c).d | %73
 (^de) .e z | (e3/2f/4e/4 =d).e | (^ef) .f z | (3D/F/A/ (3d/!courtesy!=e/f/ (3g/f/g/ (3b/g/d/ | %77
 (3A/c/e/ (3a/b/c'/ (3d'/c'/b/ (3a/g/f/ | (3^d/e/g/ (3b/g/e/ (3a/f/=d/ (3g/e/c/ | d2 z d' | %80
 (c'/a/) g2 (e/c/) | d2 z d' | (c'/a/) g2 (e/c/) | (3d/A/=f/ (3e/c/g/ (3f/d/a/ (3g/e/c/ | %84
 (3d/A/=f/ (3e/c/g/ (3f/d/a/ (3_b/g/e/ | (3=f/=c/a/ (3g/e/_b/ (3a/f/=c'/ (3b/g/e/ | %86
 (3=f/=c/a/ (3g/e/_b/ (3a/f/=c'/ (3d'/!courtesy!=b/^g/ | a2 z [=fd'] | [e^c'][_e=c'][d=b][_d_b] | %89
 [=ca][_Bg][A=f][^F_e] | (3d/G/_B/ (3d/g/_b/ (3d'/!courtesy!=c'/b/ (3a/g/=f/ | e z [=c=fa] z | %92
 (3=C/E/G/ (3=c/e/g/ (3a/=c'/=f'/ (3c'/a/!courtesy!=f/ | .=c'.!courtesy!=c z2 | %94
!p! (=f3/2g/4f/4 e).f | (^fg) .g z | (g3/2a/4g/4 ^f).g | (^ga) .a z | %98
!f![Q:1/4=92]"^92" (3_b/=c'/d'/ (3c'/b/a/ (3!courtesy!=g/a/g/ (3=f/_e/d/ | %99
 (3=c/d/_e/ (3d/c/_B/ (3A/B/c/ (3B/A/G/ | (3^F/=c/d/ (3_e/d/c/ (3a/g/^f/ (3=c'/_b/a/ | %101
 (3=f'/=e'/d'/ (3=c'/=b/a/ (3^g/!>(!=f/!courtesy!=e/ (3d/=c/B/!>)! | %102
!p![Q:1/4=90]"^90" (A3/2B/4A/4 ^G).A | (^AB) B2- | (B3/2=c/4B/4 A).B | (^B!courtesy!^c)!<(! c2- | %106
 (c3/2d/4c/4 B).c!<)! |!f![Q:1/4=92]"^92" (3d/F/B/ (3d/f/b/ (3d'/b/f/ (3b/f/d/ | (g3/2a/4g/4 f).g | %109
 (3c/E/A/ (3c/e/a/ (3c'/a/e/ (3a/e/c/ | (f3/2g/4f/4 e).f | (3B/E/G/ (3B/G/B/ (3e/B/e/ (3g/e/g/ | %112
 (3b/=c'/b/ (3a/g/f/ (3g/a/g/ (3f/e/d/ | ^c z [Adf] z | (3A,/C/E/ (3A/c/e/ (3f/a/d'/ (3a/f/d/ | %115
[Q:1/4=90]"^90" .a.A z2 | z4 | z!p!"_[   ]" (g/B/) (!courtesy!=dc) | z4 | %119
 z (a/c/) (!courtesy!=e^d) | (e3/2^d/4e/4 f).g | (=cB) z .g | (_BA) z (A/f/) | (e d2 ^G) | %124
 (A3/2B/4A/4 ^G).A | (^AB) .B z | (c3/2d/4c/4 B).c | (cd) .d z | (e3/2!<(!f/4e/4) d.e | %129
 (f3/2g/4f/4 e).f!<)! |!f!"_[   ]" (3g/e/c/ (3A/G/E/ (3C/E/G/ (3A/c/e/ | %131
 (3g/e/c/ (3A/G/E/ (3C/E/G/ (3A/c/e/ | (3g/e/g/ (3f/d/f/ (3e/c/e/ (3d/B/d/ | %133
 (3c/A/c/ (3B/G/B/ (3A/F/A/ (3G/E/G/ | F (3a/f/d/ (3c/e/A/ (3a/g/e/ | %135
 (3d/f/A/ (3a/f/d/ (3c/e/A/ (3a/g/e/ | (3d/f/A/ a2 g- | g f2 e- | e d2 c | %139
 (3d/d'/a/ (3b/d'/g/ (3f/a/d/ (3e/g/c/ | d z!mf! ([Af][^Ae] | [Bd][Fc] [GB][D!courtesy!=A]) | %142
 (A/G/F) A2- | (A/GFED/) | ([DF][CE]) (3(f/g/f/ (3e/^g/a/) | %145
 (3(d/e/d/ (3c/^e/f/) (3(B/=c/B/ (3A/^c/d/ | A/G/F) a2- | (a/b/g/e/) (df/e/) | %148
 d z!f! (3d'/a/f/ (3d/A/F/ | E z (3e'/c'/g/ (3e/c/G/ | F z (3=c'/a/f/ (3d/=c/A/ | %151
 (3z/ B/^d/ (3f/b/B/ (3z/ e/^g/ (3b/e'/e/ | (3z/ A/c/ (3e/a/A/ (3z/ d/f/ (3a/d'/d/ | %153
 (3z/ a/g/ (3z/ g/f/ (3z/ f/e/ (3z/ e/d/ | (3c/A/e/ (3c/a/e/ (3c'/a/e'/ (3c'/a/e/ | %155
 (3f/d/a/ (3f/d'/a/ (3f/a/d/ (3f/A/d/ | (3c/A/e/ (3c/a/e/ (3c'/a/e'/ (3c'/a/e/ | %157
 (3=f/d/a/ (3f/d'/a/ (3f/a/d/ (3f/A/d/ | c/ x/ x [Bd]/ x/ x | [ce]/ x/ x [df]/ x/ x | %160
 (3g/c'/e'/ (3f/e'/d'/ (3e/g/c'/ (3d/c'/b/ | %161
!>(! (3c/e/!fermata!a/ (3!fermata!B/a/!fermata!g/ (3!fermata!A/!fermata!c/!fermata!f/ (3!fermata!G/!fermata!f/!fermata!e/!>)! | %162
 (d3/2e/4d/4 c).d | (^de) .e z | (e3/2f/4e/4 =d).e | (^ef) .f z | (a/>b/g/>a/) .f.d | %167
 (g/>a/f/>g/) .e.c | .d.d.c.!fermata!c | (!fermata!PTB/>A/B/>c/) .A z |!f! (d3/2e/4d/4 c).d | %171
 (^de) .e z | (e3/2f/4e/4 =d).e | (^ef) .f z | (3D/F/A/ (3d/!courtesy!=e/f/ (3g/f/g/ (3b/g/d/ | %175
 (3A/c/e/ (3a/b/c'/ (3d'/c'/b/ (3a/g/f/ | (3^d/e/g/ (3b/g/e/ (3a/f/=d/ (3g/e/c/ | %177
 (3d/f/a/ (3d'/d/d'/ (3d'/c'/b/ (3a/g/f/ | (3B/e/g/ (3b/B/b/ (3b/a/g/ (3f/e/d/ | %179
 (3A/d/f/ (3a/f/d/ (3A/c/e/ (3g/e/c/ | (3d/f/a/ (3d'/d/d'/ (3d'/c'/b/ (3a/g/f/ | %181
 (3B/e/g/ (3b/B/b/ (3b/a/g/ (3f/e/d/ | (3A/d/f/ (3a/f/d/ (3A/c/e/ (3g/e/c/ | d z [gb] z | %184
!f!!>(! [fa] z [cg] z | [df] z[Q:1/4=88]"^88" [Bg] z | %186
[Q:1/4=85]"^85" [Af] z [Gc] z[Q:1/4=80]"^80" |!mp! !fermata![Fd]!>)! z !fermata![Af] z | %188
!p! [Fd]2 z2 |] %189
V:2
!p! z!p! [FA][FA][FA] | z!ped! [GB][GB]!ped-up![GB] | z!ped! [CA][CA]!ped-up![CA] | %3
 z!ped! [DA][DA]!ped-up![DA] | A2- A z | A2- A z | [FA] z [EA] z | %7
[K:bass]{/xx} (([E,D]2 [A,C])) z |!mf! (3D/E/F/ (3E/D/C/ (3B,/C/D/ (3C/B,/A,/ | %9
 (3G,/A,/B,/ (3A,/G,/F,/ (3E,/F,/G,/ (3F,/E,/D,/ | %10
 (3C,/D,/E,/ (3D,/C,/B,,/ (3A,,/B,,/A,,/ (3G,,/F,,/E,,/ | %11
 (3D,,/F,,/G,,/ (3A,,/B,,/C,/ (3D,/E,/F,/ (3G,/A,/B,/ |!ped! (=C2!ped-up!!ped! B,)!ped-up! z | %13
!ped! (G,2!ped-up!!ped! F,)!ped-up! z | z!ped! [G,G]!ped-up!!ped![A,F]!ped-up!!ped![A,E]!ped-up! | %15
!ped! (3D,/F,/A,/ (3D/A,/F,/!ped-up!!ped! (3D,/F,/A,/ (3D/A,/F,/!ped-up! | %16
!ped! (3D,/E,/G,/ (3C/G,/E,/!ped-up!!ped! (3D,/E,/G,/ (3C/G,/E,/!ped-up! | %17
!ped! (3D,/F,/A,/ (3D/A,/F,/!ped-up!!ped! (3D,/F,/A,/ (3D/A,/F,/!ped-up! | %18
!ped! (3D,/E,/G,/ (3C/G,/E,/!ped-up!!ped! (3D,/E,/G,/ (3C/G,/E,/!ped-up! | %19
!ped! D,2!ped-up! z!ped! [A,EG]!ped-up! |!ped! [DF]2!ped-up! z!ped! [A,EG]!ped-up! | %21
!ped! [D,D]!ped-up!!ped![A,,A,]!ped-up!!ped![F,,F,]!ped-up!!ped![D,,D,]!ped-up! | %22
!ped! (3A,,,/C,,/E,,/!ped-up! (3A,,/C,/E,/!ped! (3D,,/F,,/A,,/!ped-up! (3D,/F,/A,/ | %23
!ped! [A,,C,]!ped-up! z!ped! [A,,D,]!ped-up! z | [A,,C,] z z2 |!p! (A,3/2B,/4A,/4 ^G,).A, | %26
 (^A,!ped!B,) .B,!ped-up! z | (B,3/2C/4B,/4 =A,).B, | (^B,!ped!C) .C!ped-up! z | %29
[K:treble] z ([df][ce][Bd]) |!ped! ([^Ae]2!ped-up!!ped! [Bd-]2!ped-up! | %31
!ped! [^Gd]2!ped-up!!ped! [=Ac-]2)!ped-up! | c=cBA | ^G2 z2 | %34
[K:bass]!ped! (E3/2^D/4!courtesy!=E/4!ped-up! F).E |!ped! E=D!ped-up! .D z | %36
!ped! (C3/2B,/4C/4!ped-up! D).C |!ped! (CB,)!ped-up! .B, z | %38
[K:treble]!ped! (A3/2B/4A/4!ped-up! ^G).^A |!f!!ped! B2!ped-up!!ped! z2!ped-up! | %40
!ped! z4!ped-up!!ped!!ped-up! |!ped! .B!ped-up!!ped!.A!ped-up!!ped!.^G!ped-up!!ped!.F!ped-up! | %42
!ped! .E!ped-up!!ped!.D!ped-up!!ped!.C!ped-up!!ped!.B,!ped-up! | A, z!ped! [de]!ped-up! z | %44
!ped! [ce]!ped-up! z!ped! [de]!ped-up! z | %45
!ped! [ce]!ped-up!!ped! (3c/e/c/!ped-up!!ped! (3^A/c/A/!ped-up!!ped! (3B/d/B/!ped-up! | %46
!ped! (3^G/B/G/!ped-up!!ped! (3=A/c/A/!ped-up!!ped! (3F/A/F/!ped-up!!ped! (3G/B/G/!ped-up! | %47
!ped! (3^E/!courtesy!^G/E/!ped-up!!ped! (3F/A/F/!ped-up!!ped! (3^D/F/D/!ped-up!!ped! (3=D/!courtesy!=E/D/!ped-up! | %48
[K:bass]!ped! C!ped-up!!ped!D!ped-up!!ped!E!ped-up!!ped!E,!ped-up! | A, z[K:treble] (A^G | FEDC) | %51
 ([B,^G][A,A]) z!p! [CE] | ([FA][E^G][DF][^DF]) | E2!mf!!ped! e2!ped-up!!ped!!ped-up! | %54
!ped! c2!ped-up!!ped!!ped-up!!ped! A2!ped-up! | (^GA) z[K:bass] [C,A,-] | A,DC^G, | %57
!f!!ped! (3A,,/C,/E,/!ped-up! (3A,/C/E/!ped! A z!ped-up! | %58
!ped! (3A,,/D,/^G,/!ped-up! (3B,/D/E/!ped! ^G z!ped-up! | %59
!ped! (3A,,/C,/E,/!ped-up! (3A,/C/E/!ped! =G z!ped-up! | %60
!ped! (3A,,/D,/F,/!ped-up! (3A,/D/F/!ped! A z!ped-up! | %61
!ped! (3A,,/C,/E,/!ped-up!!ped! (3A,/C/E/!ped-up!!ped! G z!ped-up! |!ped! z4!ped-up!!ped!!ped-up! | %63
!ped! z4!ped-up!!ped!!ped-up!!ped!!ped-up!!ped!!ped-up! |[K:treble]!p! z!p! [FA][FA][FA] | %65
 z!ped! [GB][GB]!ped-up![GB] | z!ped! [CA][CA]!ped-up![CA] | z!ped! [DA][DA]!ped-up![DA] | %68
 A2- A z | A2- A z | [FA] z [EA] z |[K:bass]{/xx} (([E,D]2 [A,C])) z | %72
!mf! (3D/E/F/ (3E/D/C/ (3B,/C/D/ (3C/B,/A,/ | (3G,/A,/B,/ (3A,/G,/F,/ (3E,/F,/G,/ (3F,/E,/D,/ | %74
 (3C,/D,/E,/ (3D,/C,/B,,/ (3A,,/B,,/A,,/ (3G,,/F,,/E,,/ | %75
 (3D,,/F,,/G,,/ (3A,,/B,,/C,/ (3D,/E,/F,/ (3G,/A,/B,/ |!ped! (=C2!ped-up!!ped! B,)!ped-up! z | %77
!ped! (G,2!ped-up!!ped! F,)!ped-up! z | z!ped! [G,G]!ped-up!!ped![A,F]!ped-up!!ped![A,E]!ped-up! | %79
!ped! (3D,/F,/A,/ (3D/A,/F,/!ped-up!!ped! (3D,/F,/A,/ (3D/A,/F,/!ped-up! | %80
!ped! (3D,/E,/G,/ (3C/G,/E,/!ped-up!!ped! (3D,/E,/G,/ (3C/G,/E,/!ped-up! | %81
!ped! (3D,/=F,/A,/ (3D/A,/F,/!ped-up!!ped! (3D,/F,/A,/ (3D/A,/F,/!ped-up! | %82
!ped! (3D,/E,/G,/ (3C/G,/E,/!ped-up!!ped! (3D,/E,/G,/ (3C/G,/E,/!ped-up! | %83
!ped! D,2!ped-up! z[K:treble]!ped! [A,EG]!ped-up! |!ped! [D=F]2!ped-up! z!ped! [=CG_B]!ped-up! | %85
!ped! [=FA]2!ped-up! z!ped! [!courtesy!=CG_B]!ped-up! | %86
!ped! [!courtesy!=FA]2!ped-up! z!ped! [E=Bd]!ped-up! | %87
!ped! (3A/E/=c/!ped-up!!ped! (3B/^G/d/!ped-up!!ped! (3c/A/e/!ped-up!!ped! (3d/B/G/!ped-up! | %88
!ped! (3A/^c/A/!ped-up!!ped! (3^F/A/F/!ped-up!!ped! (3=G/B/G/!ped-up!!ped! (3E/G/E/!ped-up! | %89
!ped! (3=F/A/F/!ped-up!!ped! (3^C/E/C/!ped-up!!ped! (3D/F/D/!ped-up!!ped! (3A,/=C/A,/!ped-up! | %90
!ped! (_B,3!ped-up! =B,) | %91
[K:bass]!ped! (3=C,,/E,,/G,,/!ped-up! (3=C,/E,/G,/!ped! (3=F,,/A,,/C,/!ped-up! (3=F,/A,/=C/ | %92
!ped! [=C,E,]!ped-up! z!ped! [C,=F,]!ped-up! z | [=C,E,] z z2 | z4 | %95
[K:treble] z!p!!ped! (_B/D/ =F!ped-up!E) | z4 | z!ped! (=c/E/ G!ped-up!^F) | %98
[K:bass]!f! (G,3/2A,/4G,/4 ^F,).G, | (^G,A,) .A, z | (A,3/2_B,/4A,/4 =G,).A, | (^A,=B,) .B, z | %102
 z4 |[K:treble]!p! (D3/2E/4D/4 ^C).D | (^DE) E2 | (^E3/2F/4E/4 ^D).E | (^EF) F2 | %107
[K:bass]!ped! (B,3/2C/4B,/4!ped-up!!ped! ^A,)!ped-up!!ped!.B,!ped-up! | %108
!ped! (3E,/E,,/G,,/ (3B,,/E,/G,/!ped-up!!ped! (3B,/G,/E,/!ped-up!!ped! (3G,/E,/B,,/!ped-up! | %109
!ped! (A,3/2B,/4A,/4!ped-up!!ped! ^G,)!ped-up!!ped!.A,!ped-up! | %110
!ped! (3D,/D,,/F,,/ (3A,,/D,/F,/!ped-up!!ped! (3A,/F,/D,/!ped-up!!ped! (3F,/D,/A,,/!ped-up! | %111
!ped! G,4-!ped-up! |!ped! G,3!ped-up! ^G, | %113
!ped! (3A,,,/C,,/E,,/!ped-up! (3A,,/C,/E,/!ped! (3D,,/F,,/A,,/!ped-up! (3D,/F,/A,/ | %114
!ped! [A,,C,]!ped-up! z!ped! [A,,D,]!ped-up! z | [A,,C,]2 z2 |[K:treble]!p! (D3/2E/4D/4 C).D | %117
 (^D!ped!E) .E!ped-up! z | (E3/2F/4E/4 =D).E | (^E!ped!F) .F!ped-up! z | z ([GB][FA][EG]) | %121
 ([^DA]2!ped! [EG-]2!ped-up! | [CG]2!ped! [=DF-]2)!ped-up! | F=FED | C2 z2 | %125
[K:bass]!ped! (A,3/2^G,/4!courtesy!=A,/4!ped-up! B,).A, |!ped! (A,=G,)!ped-up! .G, z | %127
!ped! (F,3/2E,/4F,/4!ped-up! G,).F, |!ped! (F,E,)!ped-up! .E, z |!ped! (D3/2E/4D/4!ped-up! C).^D | %130
!f!!ped! E2!ped-up!!ped! z2!ped-up! |!ped! z4!ped-up!!ped!!ped-up! | %132
!ped! .E!ped-up!!ped!.D!ped-up!!ped!.C!ped-up!!ped!.B,!ped-up! | %133
!ped! .A,!ped-up!!ped!.G,!ped-up!!ped!.F,!ped-up!!ped!.E,!ped-up! | %134
 D, z[K:treble]!ped! [GA]!ped-up! z |!ped! [FA]!ped-up! z!ped! [GA]!ped-up! z | %136
!ped! [FA]!ped-up!!ped! (3F/A/F/!ped-up!!ped! (3^D/F/D/!ped-up!!ped! (3E/G/E/!ped-up! | %137
!ped! (3!courtesy!^C/E/C/!ped-up!!ped! (3=D/F/D/!ped-up!!ped! (3B,/D/B,/!ped-up!!ped! (3C/E/C/!ped-up! | %138
[K:bass]!ped! (3^A,/C/A,/!ped-up!!ped! (3B,/D/B,/!ped-up!!ped! (3^G,/B,/G,/!ped-up!!ped! (3=G,/=A,/G,/!ped-up! | %139
!ped! F,!ped-up!!ped!G,!ped-up!!ped!A,!ped-up!!ped!A,,!ped-up! | D, z!mp! (DC | B,A,G,F,) | %142
 ([E,C][D,D]) z [F,A,] | ([B,D][A,C][G,B,][^G,B,]) | A,2[K:treble]!ped! A2!ped-up!!ped!!ped-up! | %145
!ped! F2!ped-up!!ped!!ped-up![K:bass]!ped! D2!ped-up!!ped!!ped-up! | (CD) z D- | DGFC | %148
!f!!ped! (3D,,/F,,/A,,/!ped-up! (3D,/F,/A,/!ped! D z!ped-up! | %149
!ped! (3D,,/G,,/C,/!ped-up! (3E,/G,/A,/!ped! C z!ped-up! | %150
!ped! (3D,,/F,,/A,,/!ped-up! (3D,/F,/A,/!ped! D z!ped-up! | %151
[K:treble]!ped! ([^DA]2!ped-up!!ped! [=D^G]2!ped-up! |!ped! [C=G]2!ped-up!!ped! [=CF]2)!ped-up! | %153
[K:bass]!ped! D!ped-up!!ped!^C!ped-up!!ped! B,2!ped-up!!ped!!ped-up! | %154
!ped! A,2!ped-up!!ped! z2!ped-up! |!ped! [A,D]2!ped-up!!ped! z2!ped-up! | %156
!ped! [A,CE]2!ped-up!!ped! z2!ped-up! |!ped! [A,D=F]2!ped-up!!ped! z2!ped-up! | %158
!ped! (3z/ A,/C/[I:staff -1](3E/!ped-up!A/!ped! [Ac]/[I:staff +1] (3z/ A,/B,/[I:staff -1](3D/!ped-up!^G/ [Bd]/ | %159
!ped![I:staff +1] (3z/ A,/C/[I:staff -1](3E/!ped-up!=G/!ped! [ce]/[I:staff +1] (3z/ A,/C/[I:staff -1](3D/!ped-up!F/ [df]/ | %160
!ped![I:staff +1] [A,,A,]4-!ped-up! | %161
!ped! [A,,A,]4!ped-up!!ped!!ped-up!!ped!!ped-up!!ped!!ped-up! |[K:treble]!p! z!p! [FA][FA][FA] | %163
 z!ped! [GB][GB]!ped-up![GB] | z!ped! [CA][CA]!ped-up![CA] | z!ped! [DA][DA]!ped-up![DA] | %166
 A2- A z | A2- A z | [FA] z [EA] z |[K:bass]{/xx} (([E,D]2 [A,C])) z | %170
!mf! (3D/E/F/ (3E/D/C/ (3B,/C/D/ (3C/B,/A,/ | (3G,/A,/B,/ (3A,/G,/F,/ (3E,/F,/G,/ (3F,/E,/D,/ | %172
 (3C,/D,/E,/ (3D,/C,/B,,/ (3A,,/B,,/A,,/ (3G,,/F,,/E,,/ | %173
 (3D,,/F,,/G,,/ (3A,,/B,,/C,/ (3D,/E,/F,/ (3G,/A,/B,/ |!ped! (=C2!ped-up!!ped! B,)!ped-up! z | %175
!ped! (G,2!ped-up!!ped! F,)!ped-up! z | z!ped! [G,G]!ped-up!!ped![A,F]!ped-up!!ped![A,E]!ped-up! | %177
!ped! [F,A,D]4!ped-up! |!ped! [G,DE]4!ped-up! |!ped! [A,DF]!ped-up! z!ped! [A,EG]!ped-up! z | %180
!ped! [F,A,D]4!ped-up! |!ped! [G,DE]4!ped-up! |!ped! [A,DF]!ped-up! z!ped! [A,EG]!ped-up! z | %183
!ped! (3D,/D/C/ (3D/!ped-up!C/D/!ped! (3D,/D/C/ (3D/!ped-up!C/D/ | %184
!mf!!ped!!>(! (3D,/D/C/ (3D/!ped-up!C/D/!ped! (3D,/D/C/ (3D/!ped-up!C/D/ | %185
!ped! (3D,/D/C/ (3D/!ped-up!C/D/!ped! (3D,/D/C/ (3D/!ped-up!C/D/ | %186
!ped! (3D,/D/C/ (3D/!ped-up!C/D/!ped! (3D,/D/C/ (3D/!ped-up!!fermata!C/!fermata!D/ | %187
!p! D,!>)! z D z | D,2 z2 |] %189
V:3
 x4 | x4 | x4 | x4 | FE D x | EF G x | x4 |[K:bass] x4 | x4 | x4 | x4 | x4 | x4 | x4 | x4 | x4 | %16
 x4 | x4 | x4 | x4 | x4 | x4 | x4 | x4 | x4 | x4 | x4 | x4 | x4 |[K:treble] x4 | x4 | x4 | %32
 !courtesy!^F2 =F2 | E2 x2 |[K:bass] E,4 | E,4 | E,4 | E,4 |[K:treble] E4 | E2 x2 | x4 | x4 | x4 | %43
 x4 | x4 | x4 | x4 | x4 |[K:bass] x4 | x2[K:treble] x2 | x4 | x4 | x4 | x2 A^G | FE DC | %55
 B,A, x[K:bass] x | D,2 E,2 | x4 | x4 | x4 | x4 | x4 | x4 | x4 |[K:treble] x4 | x4 | x4 | x4 | %68
 FE D x | EF G x | x4 |[K:bass] x4 | x4 | x4 | x4 | x4 | x4 | x4 | x4 | x4 | x4 | x4 | x4 | %83
 x3[K:treble] x | x4 | x4 | x4 | x4 | x4 | x4 | x4 |[K:bass] x4 | x4 | x4 | x4 |[K:treble] x4 | %96
 x4 | x4 |[K:bass] x4 | x4 | x4 | x4 | x4 |[K:treble] x4 | x4 | x4 | x4 |[K:bass] x4 | x4 | x4 | %110
 x4 | x4 | x4 | x4 | x4 | x4 |[K:treble] x4 | x4 | x4 | x4 | x4 | x4 | x4 | !courtesy!=B,2 _B,2 | %124
 A,2 x2 |[K:bass] A,,4 | A,,4 | A,,4 | A,,4 | A,4 | A,2 x2 | x4 | x4 | x4 | x2[K:treble] x2 | x4 | %136
 x4 | x4 |[K:bass] x4 | x4 | x4 | x4 | x4 | x4 | x2[K:treble] DC | B,A,[K:bass] G,F, | %146
 (E,D,) x F, | G,2 A,2 | x4 | x4 | x4 |[K:treble] x4 | x4 |[K:bass] B,A,G,^G, | x4 | x4 | x4 | x4 | %158
 x4 | x4 | x4 | x4 |[K:treble] x4 | x4 | x4 | x4 | FE D x | EF G x | x4 |[K:bass] x4 | x4 | x4 | %172
 x4 | x4 | x4 | x4 | x4 | x4 | x4 | x4 | x4 | x4 | x4 | x4 | x4 | x4 | x4 | x4 | x4 |] %189
V:4
 x4 | x4 | x4 | x4 | x4 | x4 | x4 | x4 | x4 | x4 | x4 | x4 | x4 | x4 | x4 | x4 | x4 | x4 | x4 | %19
 x4 | x4 | x4 | x4 | x4 | x4 | x4 | x4 | x4 | x4 | x4 | x4 | x4 | x4 | x4 | A4 | B4 | e4 | ^g4 | %38
 e4 | x4 | x4 | x4 | x4 | x4 | x4 | x =g f2 | e2 d2 | c2 B2 | x4 | x4 | x4 | x4 | x4 | x4 | x4 | %55
 x4 | x4 | x4 | x4 | x4 | x4 | x4 | x4 | x4 | x4 | x4 | x4 | x4 | x4 | x4 | x4 | x4 | x4 | x4 | %74
 x4 | x4 | x4 | x4 | x4 | x4 | x4 | x4 | x4 | x4 | x4 | x4 | x4 | x4 | x4 | x4 | x4 | x4 | x4 | %93
 x4 | x4 | x4 | x4 | x4 | x4 | x4 | x4 | x4 | x4 | x2 =A2- | A^G z2 | z2 =B2- | B^A z2 | x4 | x4 | %109
 x4 | x4 | x4 | x4 | x4 | x4 | x4 | x4 | x4 | x4 | x4 | x4 | x4 | x4 | x4 | x4 | D4 | E4 | A4 | %128
 c4 | A4 | x4 | x4 | x4 | x4 | x4 | x4 | x =c B2 | A2 G2 | F2 E2 | x4 | x4 | x4 | x4 | x4 | x4 | %145
 x4 | x4 | x4 | x4 | x4 | x4 | x4 | x4 | x4 | x4 | x4 | x4 | x4 | x4 | x4 | x4 | x4 | x4 | x4 | %164
 x4 | x4 | x4 | x4 | x4 | x4 | x4 | x4 | x4 | x4 | x4 | x4 | x4 | x4 | x4 | x4 | x4 | x4 | x4 | %183
 x4 | x4 | x4 | x4 | x4 | x4 |] %189

